public/favicon.svg

<svg width="32" height="32" viewBox="0 0 32 32" fill="none" xmlns="http://www.w3.org/2000/svg">
<rect width="32" height="32" rx="8" fill="url(#paint0_linear)"/>
<g transform="translate(4, 4)">
<svg width="24" height="24" viewBox="0 0 24 24" fill="none" xmlns="http://www.w3.org/2000/svg">
<rect x="0" y="0" width="24" height="24" fill="none"/>
<circle cx="12" cy="12" r="1" fill="white" stroke="none" />
<path d="M20.2 20.2c2.04-2.03.02-7.36-4.5-11.9-4.54-4.52-9.87-6.54-11.9-4.5-2.04 2.03-.02 7.36 4.5 11.9 4.54 4.52 9.87 6.54 11.9 4.5Z" stroke="white" stroke-width="2" stroke-linecap="round" stroke-linejoin="round"/>
<path d="M15.7 15.7c4.52-4.54 6.54-9.87 4.5-11.9-2.03-2.04-7.36-.02-11.9 4.5-4.52 4.54-6.54 9.87-4.5 11.9 2.03 2.04 7.36.02 11.9-4.5Z" stroke="white" stroke-width="2" stroke-linecap="round" stroke-linejoin="round"/>
</svg>
</g>
<defs>
<linearGradient id="paint0_linear" x1="0" y1="32" x2="32" y2="0" gradientUnits="userSpaceOnUse">
<stop stop-color="#06B6D4"/>
<stop offset="1" stop-color="#2563EB"/>
</linearGradient>
</defs>
</svg>

<svg width="32" height="32" viewBox="0 0 32 32" fill="none" xmlns="http://www.w3.org/2000/svg">
<rect width="32" height="32" rx="8" fill="url(#paint0_linear)"/>
<g transform="translate(6, 6) scale(0.8333)">
<path d="M12 13C12.5523 13 13 12.5523 13 12C13 11.4477 12.5523 11 12 11C11.4477 11 11 11.4477 11 12C11 12.5523 11.4477 13 12 13Z" stroke="white" stroke-width="2" stroke-linecap="round" stroke-linejoin="round"/>
<path d="M20.2 20.2C22.24 18.17 20.22 12.84 15.7 8.3C11.16 3.78 5.83 1.76 3.8 3.8C1.76 5.83 3.78 11.16 8.3 15.7C12.84 20.22 18.17 22.24 20.2 20.2Z" stroke="white" stroke-width="2" stroke-linecap="round" stroke-linejoin="round"/>
<path d="M15.7 15.7C20.22 11.16 22.24 5.83 20.2 3.8C18.17 1.76 12.84 3.78 8.3 8.3C3.78 12.84 1.76 18.17 3.8 20.2C5.83 22.24 11.16 20.22 15.7 15.7Z" stroke="white" stroke-width="2" stroke-linecap="round" stroke-linejoin="round"/>
</g>
<defs>
<linearGradient id="paint0_linear" x1="0" y1="32" x2="32" y2="0" gradientUnits="userSpaceOnUse">
<stop stop-color="#06B6D4"/>
<stop offset="1" stop-color="#2563EB"/>
</linearGradient>
</defs>
</svg>
